public/green-coin-big.svg

<svg width="43" height="40" viewBox="0 0 43 40" fill="none" xmlns="http://www.w3.org/2000/svg">
<g clip-path="url(#clip0_11917_51893)">
<path d="M39.6525 19.9866C39.6525 22.7956 39.0773 25.4664 38.0381 27.8929C35.2141 34.5199 28.9387 39.3006 21.4935 39.9206C20.9444 39.9733 20.382 39.9996 19.82 39.9996C9.08649 39.9996 0.340207 31.4009 0 20.6524C0.346289 9.90437 8.54345 1.1739 19.0026 0.105373C19.1332 0.0855256 19.2641 0.0725344 19.4011 0.0656779C19.4337 0.0591823 19.473 0.0591823 19.5059 0.0591823C19.8329 0.0263433 20.1595 0.0133521 20.4865 0C30.9127 0.336329 39.3062 8.80986 39.6329 19.3273C39.6461 19.5449 39.6522 19.769 39.6522 19.9866H39.6525Z" fill="#22B573"/>
<path d="M42.9999 19.9866C42.9999 9.19202 34.5348 0.402367 23.9318 0H20.4868C20.8632 0.0122695 21.2363 0.0378911 21.6069 0.0710909C21.5693 0.0743387 21.531 0.0754213 21.4935 0.0793909C28.939 0.699361 35.2141 5.48013 38.0381 12.1071C38.4212 13.0013 38.7399 13.9288 38.9911 14.8836C39.0039 14.9327 39.0161 14.9821 39.0283 15.0312C39.0898 15.2723 39.146 15.5159 39.1986 15.7602C39.2261 15.889 39.2519 16.0185 39.2769 16.1485C39.3087 16.3116 39.3377 16.4758 39.3656 16.6407C39.3985 16.8395 39.4297 17.0387 39.4568 17.2394C39.4697 17.3321 39.4812 17.4249 39.4926 17.518C39.5248 17.7839 39.5541 18.0502 39.5756 18.3191C39.5774 18.34 39.5788 18.3613 39.5803 18.3822C39.6046 18.6955 39.6225 19.0101 39.6325 19.3273C39.6421 19.489 39.6447 19.6539 39.6472 19.8178C39.6479 19.8787 39.6518 19.9387 39.6518 20C39.6518 20.0613 39.6479 20.1213 39.6472 20.1822C39.6447 20.3461 39.6425 20.511 39.6325 20.6727C39.6228 20.9895 39.6046 21.3045 39.5803 21.6178C39.5785 21.6387 39.5774 21.66 39.5756 21.6809C39.5538 21.9498 39.5248 22.2164 39.4926 22.482C39.4812 22.5752 39.4697 22.6683 39.4568 22.7606C39.4297 22.9613 39.3985 23.1608 39.3656 23.3593C39.3377 23.5239 39.3084 23.6881 39.2769 23.8515C39.2519 23.9815 39.2257 24.111 39.1986 24.2398C39.146 24.4845 39.0898 24.7277 39.0283 24.9688C39.0158 25.0182 39.0039 25.0673 38.9911 25.1164C38.7396 26.0712 38.4208 26.999 38.0381 27.8929C35.2141 34.5199 28.9387 39.3006 21.4935 39.9206C21.531 39.9242 21.5693 39.9253 21.6069 39.9289C21.2363 39.9617 20.8635 39.9877 20.4868 40H23.9318C34.5348 39.5976 42.9999 30.808 42.9999 20.0134C42.9999 20.009 42.9999 20.0047 42.9999 20C42.9999 19.9953 42.9999 19.9913 42.9999 19.9866Z" fill="#09683E"/>
<path d="M19.8259 35.7617C28.4554 35.7617 35.4511 28.7049 35.4511 19.9998C35.4511 11.2947 28.4554 4.23779 19.8259 4.23779C11.1963 4.23779 4.20068 11.2947 4.20068 19.9998C4.20068 28.7049 11.1963 35.7617 19.8259 35.7617Z" fill="#09683E"/>
<path d="M22.33 17.6158H21.5459C21.3838 17.6158 21.2328 17.7154 21.1806 17.8721C21.0761 18.1893 20.7782 18.4177 20.4283 18.4177C20.0784 18.4177 19.7801 18.1893 19.6745 17.8721C19.6223 17.7154 19.4713 17.6158 19.3093 17.6158H18.5251C18.0458 17.6158 17.6587 18.0077 17.6587 18.4913V20.3555C17.6587 20.6464 17.7027 20.929 17.7835 21.1949C18.1406 22.3627 19.217 23.227 20.4816 23.2032C21.2135 23.1894 21.8768 22.8888 22.3626 22.4067C22.8773 21.9011 23.1975 21.1935 23.1975 20.4093V18.4909C23.1975 18.0077 22.809 17.6155 22.3297 17.6155L22.33 17.6158ZM20.4269 19.811C20.7084 19.811 20.9348 20.0394 20.9348 20.322C20.9348 20.5241 20.8196 20.6944 20.6519 20.7792V21.3429C20.6519 21.4677 20.5517 21.5702 20.4265 21.5702C20.3013 21.5702 20.2015 21.4677 20.2015 21.3429V20.7792C20.0355 20.6948 19.9199 20.5244 19.9199 20.322C19.9199 20.0394 20.1464 19.811 20.4265 19.811H20.4269Z" fill="#38C266"/>
<path d="M29.5499 15.7611C28.8001 16.3638 27.8582 16.7333 26.8311 16.7597H26.595C25.4649 16.7304 24.4368 16.2844 23.6555 15.5713L23.654 15.5699C23.565 15.4703 23.4702 15.3761 23.3725 15.2873C22.6227 14.4689 22.1641 13.3744 22.1641 12.1723C22.1641 11.3358 22.3866 10.5517 22.7736 9.8772C25.984 10.5877 28.4184 12.6902 29.5495 15.7611H29.5499Z" fill="#38C266"/>
<path d="M23.6536 15.5702C23.5563 15.4803 23.4615 15.3858 23.3721 15.2876C23.4694 15.3764 23.5642 15.4706 23.6536 15.5702Z" fill="#38C266"/>
<path d="M26.8313 16.7595C26.7916 16.761 26.753 16.761 26.7133 16.761C26.6736 16.761 26.6349 16.761 26.5952 16.7595H26.8313Z" fill="#38C266"/>
<path d="M29.5349 24.3058V24.3072C28.3926 27.3641 25.9511 29.4402 22.7354 30.1327C22.3715 29.4734 22.1641 28.7145 22.1641 27.9069C22.1641 25.6147 23.8297 23.7129 26.0072 23.3722C26.238 23.3361 26.4726 23.3167 26.713 23.3167C27.7784 23.3167 28.7589 23.6865 29.5345 24.3058H29.5349Z" fill="#38C266"/>
<path d="M20.5383 10.5325C20.5383 12.225 19.6307 13.7031 18.2781 14.4981C18.057 14.5854 17.8456 14.6893 17.6438 14.8084C17.1316 15.0105 16.5728 15.1213 15.9893 15.1213C14.4818 15.1213 13.1457 14.3815 12.3179 13.2419C14.1248 10.9692 16.9205 9.61157 20.2707 9.61157C20.3297 9.61157 20.3888 9.61157 20.4478 9.61302C20.5068 9.91073 20.5383 10.2182 20.5383 10.5329V10.5325Z" fill="#38C266"/>
<path d="M18.2783 14.498C18.0765 14.6171 17.8637 14.7211 17.644 14.8084C17.8458 14.6893 18.0572 14.5854 18.2783 14.498Z" fill="#38C266"/>
<path d="M20.5381 29.5455C20.5381 29.832 20.512 30.1135 20.4612 30.3863C20.3979 30.3877 20.3335 30.3877 20.2705 30.3877C16.9339 30.3877 14.1482 29.0511 12.3413 26.8047C13.1705 25.6827 14.4956 24.957 15.9895 24.957C18.5022 24.957 20.5385 27.0111 20.5385 29.5458L20.5381 29.5455Z" fill="#38C266"/>
<path d="M15.1286 19.5188C15.1189 19.6808 15.115 19.8457 15.115 20.0146C15.115 20.1835 15.1193 20.3347 15.1275 20.4899V20.4913C14.8982 22.663 13.1668 24.3818 11.0014 24.5702C10.4179 23.2224 10.1021 21.688 10.1021 20.0146C10.1021 18.3413 10.4219 16.7845 11.0111 15.4287C13.175 15.6225 14.9036 17.3442 15.129 19.5173V19.5188H15.1286Z" fill="#38C266"/>
<path d="M15.1534 19.9995C15.1534 20.1655 15.1452 20.3289 15.1273 20.4899C15.119 20.3347 15.1147 20.1756 15.1147 20.0146C15.1147 19.8457 15.119 19.6808 15.1283 19.5188C15.1448 19.6769 15.153 19.8374 15.153 19.9995H15.1534Z" fill="#38C266"/>
</g>
<defs>
<clipPath id="clip0_11917_51893">
<rect width="43" height="40" fill="white"/>
</clipPath>
</defs>
</svg>

<svg xmlns="http://www.w3.org/2000/svg" width="43" height="40" fill="none" viewBox="0 0 43 40"><g clip-path="url(#a)"><path fill="#22b573" d="M39.653 19.987c0 2.809-.576 5.48-1.615 7.906-2.824 6.627-9.1 11.408-16.544 12.028A18 18 0 0 1 19.82 40C9.086 40 .34 31.4 0 20.652.346 9.904 8.543 1.174 19.003.105q.194-.029.398-.04c.033-.006.072-.006.105-.006.327-.033.654-.046.98-.059 10.427.336 18.82 8.81 19.147 19.327.013.218.02.442.02.66"/><path fill="#09683e" d="M43 19.987C43 9.192 34.535.402 23.932 0h-3.445q.564.02 1.12.071-.057.003-.113.008c7.445.62 13.72 5.401 16.544 12.028q.576 1.343.953 2.777l.037.147a20 20 0 0 1 .548 3.288l.004.063q.038.47.053.945.013.244.014.49c0 .062.005.122.005.183l-.005.182q-.002.247-.014.49-.015.476-.053.946l-.004.063a20 20 0 0 1-.3 2.17q-.036.195-.077.389-.08.367-.17.729l-.038.147q-.377 1.434-.953 2.777c-2.824 6.627-9.1 11.408-16.544 12.028l.113.008q-.555.051-1.12.071h3.445C34.535 39.598 43 30.808 43 20.013z"/><path fill="#09683e" d="M19.826 35.762c8.63 0 15.625-7.057 15.625-15.762S28.455 4.238 19.826 4.238C11.196 4.238 4.2 11.295 4.2 20s6.995 15.762 15.625 15.762"/><path fill="#38c266" d="M22.33 17.616h-.784c-.162 0-.313.1-.365.256a.793.793 0 0 1-1.507 0 .38.38 0 0 0-.365-.256h-.784a.87.87 0 0 0-.866.875v1.864c0 .291.044.574.125.84.357 1.168 1.433 2.032 2.698 2.008a2.74 2.74 0 0 0 1.88-.796 2.8 2.8 0 0 0 .836-1.998v-1.918a.87.87 0 0 0-.868-.875m-1.903 2.195a.51.51 0 0 1 .225.968v.564a.226.226 0 1 1-.45 0v-.564a.51.51 0 0 1 .224-.968m9.124-4.05a4.5 4.5 0 0 1-2.719.999h-.236a4.53 4.53 0 0 1-2.94-1.189l-.001-.001a4 4 0 0 0-.282-.283 4.6 4.6 0 0 1-1.208-3.115 4.6 4.6 0 0 1 .61-2.295c3.21.71 5.644 2.813 6.775 5.884"/><path fill="#38c266" d="M23.654 15.57a5 5 0 0 1-.282-.282q.146.133.282.282m3.177 1.19-.118.001-.118-.002zm2.704 7.546v.001c-1.142 3.057-3.584 5.133-6.8 5.826a4.6 4.6 0 0 1-.57-2.226c0-2.292 1.665-4.194 3.842-4.535q.346-.054.706-.055c1.065 0 2.046.37 2.822.989m-8.997-13.773a4.59 4.59 0 0 1-2.26 3.965 4.5 4.5 0 0 0-.634.31 4.53 4.53 0 0 1-5.326-1.567c1.807-2.272 4.602-3.63 7.953-3.63l.177.002q.09.447.09.92"/><path fill="#38c266" d="M18.278 14.498a4.6 4.6 0 0 1-.634.31q.303-.179.634-.31m2.26 15.048q0 .43-.077.84l-.19.002c-3.337 0-6.123-1.337-7.93-3.583a4.53 4.53 0 0 1 3.649-1.848c2.512 0 4.548 2.054 4.548 4.589m-5.409-10.027a8 8 0 0 0-.002.97v.002c-.229 2.172-1.96 3.89-4.126 4.08-.583-1.349-.899-2.883-.899-4.556s.32-3.23.91-4.586c2.163.194 3.892 1.915 4.117 4.088z"/><path fill="#38c266" d="M15.153 20q0 .249-.026.49a9 9 0 0 1 .001-.971q.025.237.025.48"/></g><defs><clipPath id="a"><path fill="#fff" d="M0 0h43v40H0z"/></clipPath></defs></svg>
